X:1
T:Angelis suis mandavit de te
T:Manuel Cardoso edit BMarble
T:Angelis suis mandavit de te
T:Copyright © 2016 by CPDL.  This edition can be fully distributed, duplicated, performed, and recorded. 
T:Copyright © 2016 by CPDL.  This edition can be fully distributed, duplicated, performed, and recorded. 
T:Copyright © 2016 by CPDL.  This edition can be fully distributed, duplicated, performed, and recorded. 
T:Copyright © 2016 by CPDL.  This edition can be fully distributed, duplicated, performed, and recorded. 
T:Copyright © 2016 by CPDL.  This edition can be fully distributed, duplicated, performed, and recorded. 
C:Manuel Cardoso
C:edit BMarble
Z:Copyright © 2016 by CPDL.  This edition can be fully distributed, duplicated, performed, and recorded.
Z:
%%score [ 1 2 3 4 ]
L:1/8
Q:1/2=88
M:4/2
K:Bb
V:1 treble nm="Soprano" snm="S."
V:2 treble nm="Alto" snm="A."
V:3 treble-8 transpose=-12 nm="Tenor" snm="T."
V:4 bass nm="Bass" snm="B."
V:1
"^Ps 91: He will give his angels charge over you.upon their hands they will bear you up lest you dash your foot against a stone." z16 | %1
w: |
 G8 G4 A4 | B8 A4 ^F4- | F4 G8 =F4 | E8 D8- | D8 z8 | G8 G4 A4 | B16 | A4 F8 G4- | G4 F4 E8 | %10
w: An- ge- lis-|su- is- man-|* da- vit-|de- te,|_|an- ge- lis-|su-|is- man- da-|* vit- de-|
 D4 d4 c2 B2 A2 G2 | F4 D4 G6 FE | F4 D4 z4 E4 | (D2 E2 F2 G2 A2 B2 c4-) | (c4 B8 A4) | G12 ^F4 | %16
w: te,- man- da- * * *|* vit- de- * *|* te,- man-|da- * * * * * *||vit- de-|
 G8 z8 | z4 G8 A4 | A6 A2 B8 | c12 c4 | c8 z4 d4- | d4 d4 B6 B2 | B4 (A4 G6 F2 | E4) E4 D4 A4 | %24
w: te,-|et- in-|ma- ni- bus-|tol- lent-|te,- et|_ in- ma- ni-|bus- tol- * *|* lent- te,- ne-|
 B8 G4 G4 | A8 F4 B4 | B6 B2 G4 c4- | c2 B2 A2 G2 F4 D4 | G8 F4 C4 | D8 C4 G4- | G4 F4 F8 | %31
w: for- te- of-|fen- das- ad-|la- pi- dem- pe-|* * * * * dem-|tu- um,- ne-|for- te- of-|* fen- das-|
 z4 G4 c6 c2 | c4 (d6 c2 B4-) | (B2 A2 G8) ^F4 | G8 E4 C4 | F6 F2 F4 G4 | G8 z4 C4 | F6 F2 F4 _E4 | %38
w: ad- la- pi-|dem- pe- * *|* * * dem-|tu- um,- ad-|la- pi- dem- pe-|dem,- ad-|la- pi- dem- pe-|
 D8 G8 | ^F16 |] %40
w: dem- tu-|um.-|
V:2
 D12 =B,4 | =B,8 C8 | G,4 G4 F2 E2 D2 C2 | =B,2 CD E8 D4- | D4 C4 D4 F4 | F2 E2 D2 C2 _B,2 A,2 D4 | %6
w: An- ge-|lis- su-|is- man- da- * * *|* * * * vit|_ de- te,- man-|da- * * * * * *|
 D4 D4 C8 | z4 D4 D4 !courtesy!=E4 | F8 D4 G,4- | G,4 B,6 B,2 A,4 | B,8 z4 C4 | %11
w: vit- de- te,-|an- ge- lis-|su- is- man-|* da- vit- de-|te,- man-|
 D2 C2 B,2 A,2 B,4 C4- | C4 =B,4 C8 | z4 D4 F2 E2 D2 C2 | D6 C2 _B,2 C2 D4- | (D4 C4) B,4 A,4 | %16
w: da- * * * * vit|_ de- te,-|man- da- * * *||* * vit- de-|
 G,8 z8 | z8 z4 C4- | C4 D4 D6 D2 | E4 (E8 F4-) | F4 F4 F8 | z4 G8 G4 | E4 F4 F4 (E2 D2 | %23
w: te,-|et|_ in- ma- ni-|bus- tol- *|* lent- te,-|et- in-|ma- ni- bus- tol- *|
 C6 B,2 A,4) A,4 | G,4 D4 E8 | C4 C4 D8 | B,4 E4 E6 E2 | C4 (F2 E2 D2 E2) F4 | (F4 =E4) F8 | %29
w: * * * lent-|te,- ne- for-|te- of- fen-|das- ad- la- pi-|dem- pe- * * * dem-|tu- * um,-|
 z4 D4 _E8 | C4 C4 D8 | B,8 z4 C4 | F6 F2 F4 G4- | (G2 F2 E4) D8 | (B,8 C8) | A,8 z4 B,4 | %36
w: ne- for-|te- of- fen-|das- ad-|la- pi- dem- pe-|* * * dem-|tu- *|um,- ad-|
 E6 E2 E4 F4 | C4 D8 C4 | B,2 A,2 B,2 C2 D8 | D16 |] %40
w: la- pi- dem- pe-|dem- tu- *||um.-|
V:3
 z16 | z16 | z16 | z8 G8 | G4 A4 B8 | A4 ^F8 G4- | G4 =F4 E8 | D8 z8 | z4 d8 B4 | B8 c8 | %10
w: |||An-|ge- lis- su-|is- man- da-|* vit- de-|te,-|an- ge-|lis- su-|
 F4 B4 A2 G2 F2 E2 | D2 EF G6 F2 E4 | D4 G4 C8 | z16 | z16 | z8 z4 d4- | d4 d4 =B6 B2 | %17
w: is- man- da- * * *||vit- de- te,-|||et|_ in- ma- ni-|
 =B4 (c6 _B2 A2 G2 | F4) F8 G4 | z4 G8 A4 | A6 A2 B4 B4 | (A4 B6 c2 d2 B2) | c12 c4- | %23
w: bus- tol- * * *|* lent- te,-|et- in-|ma- ni- bus- tol-|lent _ _ _ _|te,- tol-|
 (c2 BA G8) ^F4 | G4 G4 c8- | c4 A4 B4 F4 | G8 z8 | z4 F4 B6 B2 | =B4 c4 A4 c4- | (c2 =BA B4) c8 | %30
w: * * * * lent-|te,- ne- for-|* te- of- fen-|das-|ad- la- pi-|dem- pe- dem- tu-|* * * * um,-|
 z4 A8 _B4 | G4 G4 A8 | F4 B4 B6 B2 | G4 c4 A4 B4- | (B4 G4) G8 | z4 F4 B6 B2 | B4 (c6 B2 A2 G2 | %37
w: ne- for-|te- of- fen-|das- ad- la- pi-|dem- pe- dem- tu-|* * um,-|ad- la- pi-|dem- pe- * * *|
 A4) B4 G8 | G8 B8 | A16 |] %40
w: * dem- tu-|um,- tu-|um.-|
V:4
 z16 | z16 | z16 | z16 | z16 | D,12 =B,,4 | =B,,8 C,8 | G,,8 z4 G,4 | %8
w: |||||An- ge-|lis- su-|is- man-|
 F,2 E,2 D,2 C,2 B,,2 C,D, E,4- | E,4 D,4 (C,8 | B,,8) F,8 | z16 | z4 G,4 G,4 A,4 | B,8 A,4 F,4- | %14
w: da- * * * * * * *|* vit- de|_ te,-||an- ge- lis-|su- is- man-|
 F,4 G,8 F,4 | E,8 D,8 | z4 G,8 G,4 | =E,6 E,2 E,4 F,4- | (F,2 _E,2 D,2 C,2 B,,4) G,,4 | %19
w: * da- vit-|de- te,-|et- in-|ma- ni- bus- tol-|* * * * * lent-|
 C,8 C,4 F,4 | (F,8 B,,6 C,2 | D,4) G,,4 G,,8 | C,16- | C,8 D,8 | G,,8 z4 C,4 | F,8 D,4 D,4 | %26
w: te,- et- in-|ma- * *|* ni- bus-|tol-|* lent-|te,- ne-|for- te- of-|
 (E,12 C,4) | F,8 z8 | z4 C,4 F,6 F,2 | F,4 G,4 (C,6 D,2 | E,4 F,4) D,8 | E,8 z8 | z16 | z8 D,8 | %34
w: fen- *|das-|ad- la- pi-|dem- pe- dem _|_ _ tu-|um,||ne-|
 E,8 C,4 C,4 | D,8 B,,4 E,4 | E,6 E,2 C,4 F,4- | (F,2 E,2 D,2 C,2 B,,4) C,4 | G,,16 | D,16 |] %40
w: for- te- of-|fen- das- ad-|la- pi- dem- pe-|* * * * * dem-|tu-|um.-|

